!!!COM: Music21
!!!OTL: Rumba dos Cinco Mariñeiros
!!!OMV: pezas_rumbas_rumba-dos-cinco-marineiros_rumba-dos-cinco-marineiros-partitura.musicxml
**kern
*part1
*staff1
*I"Bagpipes
*I'Bag
*clefG^2
*k[]
*M2/4
=1
!LO:TX:a:t=Andante
4.gg
8aa
=
8aaL
16ggL
16ffJJ
8eeL
16ffL
16ggJJ
=
8aaL
[8ggJ
4gg_
=
2gg]
=
4.gg
8aa
=
8aaL
16ggL
16ffJJ
8eeL
16ffL
16ggJJ
=
[2ff
=
2ff]
=
4.ff
8gg
!!linebreak:original
=
8ggL
16ffL
16eeJJ
8ddL
16eeL
16ffJJ
=
8ggL
[8ffJ
4ff_
=
2ff]
=
4.ff
8gg
=
8ggL
16ffL
16eeJJ
8ddL
16eeL
16ffJJ
=
[2ee
=
2ee]
=||
*M2/4
!LO:TX:a:t=Andante
4.gg
8aa
!!linebreak:original
=
8aaL
16ggL
16ffJJ
8eeL
16ffL
16ggJJ
=
8aaL
[8ggJ
4gg_
=
2gg]
=
4.gg
8aa
=
8aaL
16ggL
16ffJJ
8eeL
16ffL
16ggJJ
=
[2ff
=
2ff]
=
4.ff
8gg
=
8ggL
16ffL
16eeJJ
8ddL
16eeL
16ffJJ
!!linebreak:original
=
8ggL
[8ffJ
4ff_
=
2ff]
=
4.ff
8gg
=
8ggL
16ffL
16eeJJ
8ddL
16eeL
16ffJJ
=
[2ee
=
4.ee]
16eeLL
16ffJJ
=
8.ggL
16ggJk
8ggL
16aaL
16ffJJ
=
8ggL
[8eeJ
8eeL]
16eeL
16ffJJ
!!linebreak:original
=
8ggL
16ggL
16ggJJ
8ggL
16aaL
16ffJJ
=
8ggL
[8ffJ
8ffL]
16ffL
16ggJJ
=
8.aaL
16aaJk
8aaL
16bbL
16aaJJ
=
8aaL
16ggL
16eeJJ
8ggL
16aaL
16ggJJ
=
8ggL
16ffL
16ddJJ
8ffL
16ggL
16ffJJ
=
8ffL
[8eeJ
8eeL]
16eeL
16ffJJ
!!pagebreak:original
=
8.ggL
16ggJk
8ggL
16aaL
16ffJJ
=
8ggL
[8eeJ
8eeL]
16eeL
16ffJJ
=
8.ggL
16eeJk
8eeL
16ffL
16ggJJ
=
[2aa
=
8aa]
8r
8r
16ffLL
16ggJJ
=
8.aaL
16aaJk
8aaL
16bbL
16aaJJ
=
8aaL
16ggL
16eeJJ
8ggL
16aaL
16ggJJ
!!linebreak:original
=
8ggL
16ffL
16ddJJ
8ffL
16ggL
16ffJJ
=
8ffL
[8eeJ
8eeL]
16ffL
16ggJJ
=
8.aaL
16aaJk
8aaL
16bbL
16aaJJ
=
8aaL
16ggL
16eeJJ
8ggL
16aaL
16ggJJ
=
8ggL
16ffL
16ggJJ
8aaL
16ggL
16ffJJ
=||
[2ee
=
2ee]
==
*-
!!!system-decoration: s1,s2
